public/icons/shopping-cart.svg

<svg width="24" height="24" viewBox="0 0 24 24" fill="none" xmlns="http://www.w3.org/2000/svg">
<path fill-rule="evenodd" clip-rule="evenodd" d="M0.667969 3.32874C0.667969 3.69694 0.966446 3.99541 1.33463 3.99541H3.19184C3.53328 3.99541 3.81953 4.25339 3.85492 4.59299L5.13526 16.8806C5.24142 17.8994 6.10017 18.6733 7.12449 18.6733H19.9608C20.329 18.6733 20.6275 18.3748 20.6275 18.0066C20.6275 17.6385 20.329 17.34 19.9608 17.34H7.12449C6.78305 17.34 6.4968 17.082 6.46142 16.7424L6.37743 15.9364L19.2517 14.7299C19.6594 14.6917 20.0025 14.4089 20.1179 14.0161L22.2915 6.61513C22.4796 5.97473 21.9995 5.33334 21.332 5.33334H5.27261L5.18107 4.4548C5.07491 3.436 4.21616 2.66208 3.19184 2.66208H1.33463C0.966446 2.66208 0.667969 2.96056 0.667969 3.32874Z" fill="white"/>
<path fill-rule="evenodd" clip-rule="evenodd" d="M8.0013 22.6667C8.73768 22.6667 9.33464 22.0697 9.33464 21.3333C9.33464 20.597 8.73768 20 8.0013 20C7.26492 20 6.66797 20.597 6.66797 21.3333C6.66797 22.0697 7.26492 22.6667 8.0013 22.6667Z" fill="white"/>
<path fill-rule="evenodd" clip-rule="evenodd" d="M17.3333 22.6667C18.0697 22.6667 18.6667 22.0697 18.6667 21.3333C18.6667 20.597 18.0697 20 17.3333 20C16.597 20 16 20.597 16 21.3333C16 22.0697 16.597 22.6667 17.3333 22.6667Z" fill="white"/>
</svg>

<svg xmlns="http://www.w3.org/2000/svg" width="24" height="24" fill="none"><path fill="#fff" fill-rule="evenodd" d="M.668 3.329c0 .368.298.666.667.666h1.857c.341 0 .627.258.663.598l1.28 12.288a2 2 0 0 0 1.99 1.792H19.96a.667.667 0 0 0 0-1.333H7.124a.667.667 0 0 1-.663-.598l-.084-.806 12.875-1.206a1 1 0 0 0 .866-.714l2.173-7.4a1 1 0 0 0-.96-1.283H5.274l-.092-.878a2 2 0 0 0-1.99-1.793H1.336a.667.667 0 0 0-.667.667ZM8.001 22.667a1.333 1.333 0 1 0 0-2.667 1.333 1.333 0 0 0 0 2.667ZM17.333 22.667a1.333 1.333 0 1 0 0-2.667 1.333 1.333 0 0 0 0 2.667Z" clip-rule="evenodd"/></svg>
